polaris-icons/icons/new-icons/TeamMajor.svg

<svg width="20" height="20" viewBox="0 0 20 20" fill="none" xmlns="http://www.w3.org/2000/svg">
<path fill-rule="evenodd" clip-rule="evenodd" d="M6 4C4.75736 4 3.75 5.00736 3.75 6.25C3.75 7.49264 4.75736 8.5 6 8.5C7.24264 8.5 8.25 7.49264 8.25 6.25C8.25 5.00736 7.24264 4 6 4ZM5.25 6.25C5.25 5.83579 5.58579 5.5 6 5.5C6.41421 5.5 6.75 5.83579 6.75 6.25C6.75 6.66421 6.41421 7 6 7C5.58579 7 5.25 6.66421 5.25 6.25Z" fill="#4A4A4A"/>
<path fill-rule="evenodd" clip-rule="evenodd" d="M10 7C8.75736 7 7.75 8.00736 7.75 9.25C7.75 10.4926 8.75736 11.5 10 11.5C11.2426 11.5 12.25 10.4926 12.25 9.25C12.25 8.00736 11.2426 7 10 7ZM9.25 9.25C9.25 8.83579 9.58579 8.5 10 8.5C10.4142 8.5 10.75 8.83579 10.75 9.25C10.75 9.66421 10.4142 10 10 10C9.58579 10 9.25 9.66421 9.25 9.25Z" fill="#4A4A4A"/>
<path fill-rule="evenodd" clip-rule="evenodd" d="M11.75 6.25C11.75 5.00736 12.7574 4 14 4C15.2426 4 16.25 5.00736 16.25 6.25C16.25 7.49264 15.2426 8.5 14 8.5C12.7574 8.5 11.75 7.49264 11.75 6.25ZM14 5.5C13.5858 5.5 13.25 5.83579 13.25 6.25C13.25 6.66421 13.5858 7 14 7C14.4142 7 14.75 6.66421 14.75 6.25C14.75 5.83579 14.4142 5.5 14 5.5Z" fill="#4A4A4A"/>
<path d="M14 9C13.5858 9 13.25 9.33579 13.25 9.75C13.25 10.1642 13.5858 10.5 14 10.5H14.75C15.4404 10.5 16 11.0596 16 11.75V13.25C16 13.6642 16.3358 14 16.75 14C17.1642 14 17.5 13.6642 17.5 13.25V11.75C17.5 10.2312 16.2688 9 14.75 9H14Z" fill="#4A4A4A"/>
<path d="M6.75 9.75C6.75 9.33579 6.41421 9 6 9H5.25C3.73122 9 2.5 10.2312 2.5 11.75V13.25C2.5 13.6642 2.83579 14 3.25 14C3.66421 14 4 13.6642 4 13.25V11.75C4 11.0596 4.55964 10.5 5.25 10.5H6C6.41421 10.5 6.75 10.1642 6.75 9.75Z" fill="#4A4A4A"/>
<path d="M10.75 12C12.2688 12 13.5 13.2312 13.5 14.75V15.75C13.5 16.1642 13.1642 16.5 12.75 16.5C12.3358 16.5 12 16.1642 12 15.75V14.75C12 14.0596 11.4403 13.5 10.75 13.5H9.24999C8.55957 13.5 7.99999 14.0596 7.99999 14.7499V15.75C7.99999 16.1642 7.6642 16.5 7.24999 16.5C6.83577 16.5 6.49999 16.1642 6.49999 15.75V14.7499C6.49999 13.231 7.73126 12 9.24999 12H10.75Z" fill="#4A4A4A"/>
</svg>

<svg viewBox="0 0 20 20" xmlns="http://www.w3.org/2000/svg"><path fill-rule="evenodd" d="M6 4a2.25 2.25 0 1 0 0 4.5 2.25 2.25 0 0 0 0-4.5Zm-.75 2.25a.75.75 0 1 1 1.5 0 .75.75 0 0 1-1.5 0Z" fill="#5C5F62"/><path fill-rule="evenodd" d="M10 7a2.25 2.25 0 1 0 0 4.5 2.25 2.25 0 0 0 0-4.5Zm-.75 2.25a.75.75 0 1 1 1.5 0 .75.75 0 0 1-1.5 0Z" fill="#5C5F62"/><path fill-rule="evenodd" d="M11.75 6.25a2.25 2.25 0 1 1 4.5 0 2.25 2.25 0 0 1-4.5 0Zm2.25-.75a.75.75 0 1 0 0 1.5.75.75 0 0 0 0-1.5Z" fill="#5C5F62"/><path d="M14 9a.75.75 0 0 0 0 1.5h.75c.69 0 1.25.56 1.25 1.25v1.5a.75.75 0 0 0 1.5 0v-1.5a2.75 2.75 0 0 0-2.75-2.75h-.75Z" fill="#5C5F62"/><path d="M6.75 9.75a.75.75 0 0 0-.75-.75h-.75a2.75 2.75 0 0 0-2.75 2.75v1.5a.75.75 0 0 0 1.5 0v-1.5c0-.69.56-1.25 1.25-1.25h.75a.75.75 0 0 0 .75-.75Z" fill="#5C5F62"/><path d="M10.75 12a2.75 2.75 0 0 1 2.75 2.75v1a.75.75 0 0 1-1.5 0v-1c0-.69-.56-1.25-1.25-1.25h-1.5c-.69 0-1.25.56-1.25 1.25v1a.75.75 0 0 1-1.5 0v-1a2.75 2.75 0 0 1 2.75-2.75h1.5Z" fill="#5C5F62"/></svg>
